img/scene_2_wave_1.svg

<svg width="2167" height="733" viewBox="0 0 2167 733" fill="none" xmlns="http://www.w3.org/2000/svg">
<g clip-path="url(#clip0)">
<path d="M68.9419 69.8829C120.804 44.4992 177.283 35.0415 232.673 39.8903C288.062 44.7391 345.681 61.8849 393.224 99.4057C443.224 138.916 481.742 195.502 524.519 245.93C566.128 295.028 611.977 335.028 668.694 349.034C743.798 367.6 820.388 358.192 893.461 331.039C929.76 317.552 965.187 300.736 999.96 281.941C1037.89 261.456 1074.69 236.072 1113.68 219.026C1269.07 151.043 1424.43 220.876 1571.89 286.92C1646.59 320.361 1720.5 350.324 1799.59 361.291C1871.48 371.289 1941.46 370.489 2010.12 338.877C2066.59 312.883 2118.84 274.483 2166.99 228.514V733H0V119.231C20.1798 99.1212 43.464 82.4546 68.9419 69.8829V69.8829Z" fill="#65D5F5"/>
<path d="M34.2183 149.223C98.0186 106.924 175.887 97.1662 246.116 114.432C304.22 128.699 351.377 173.048 392.738 224.715C433.822 276.062 470.557 333.438 515.207 380.087C565.148 432.284 625.203 466.146 690.192 472.894C761.522 480.302 831.147 456.348 895.601 419.037C930.275 398.942 963.81 375.758 996.711 351.284C1031.63 325.29 1065.46 297.057 1104.7 282.581C1251.18 228.594 1387.78 351.874 1514.35 427.155C1582.17 467.668 1657.11 494.562 1735.05 506.356C1774.54 512.284 1814.06 514.144 1853.8 513.894C1888.86 513.674 1924.46 512.894 1958.87 503.407C2028.21 484.261 2090.86 429.535 2145.52 374.098C2152.75 366.767 2159.9 359.305 2166.95 351.714V733H0V180.666C9.73557 168.471 21.2775 157.866 34.2183 149.223V149.223Z" fill="#0AC0EF"/>
<path d="M85.8728 221.616C127.224 209.359 170.695 203.88 212.681 214.727C248.137 223.895 281.207 242.9 310.878 269.034C336.636 291.778 360.214 318.402 382.267 346.745C405.28 376.328 426.848 406.93 453.339 431.844C504.636 480.132 565.148 511.305 628.423 522.712C691.51 534.079 756.162 528.71 817.812 508.415C874.014 489.95 924.341 458.068 973.35 418.977C1019.91 381.776 1065.17 340.187 1115.65 311.624C1169.04 281.411 1226.95 269.854 1284.23 288.789C1351.08 310.894 1410.13 362.431 1465.84 412.419C1522.13 462.916 1578.03 516.043 1641.49 551.455C1708.32 588.735 1781.47 613.189 1854.85 613.089C1925.33 612.999 2000.21 601.302 2067.44 574.009C2106.39 558.203 2138.92 530.6 2167.06 496.118V733H0V276.112C24.2619 248.659 52.6352 231.483 85.8728 221.616Z" fill="#3DCBF2"/>
<path d="M4.16089 515.773C37.8443 502.327 73.0632 492.319 108.401 489.71C153.101 486.411 198.653 501.337 241.302 516.703C279.789 530.646 317.253 547.31 353.418 566.571C389.499 585.726 424.797 606.721 461.977 622.427C532.901 652.42 607.549 668.286 682.405 660.688C757.816 653.04 828.462 622.387 897.612 584.926C970.081 545.656 1041.54 499.277 1118.31 474.733C1194.35 450.429 1273.79 446.95 1350.56 468.265C1425.26 489 1496.44 528.78 1560.59 581.347C1617.29 627.816 1669.96 682.672 1724.71 732.99H0V517.473L4.16089 515.773Z" fill="#65D5F5"/>
<g style="mix-blend-mode:multiply" opacity="0.5">
<path d="M1269.74 523.262C1345.18 533.259 1420.74 570.1 1487.7 614.149C1538.3 647.421 1585.23 687.571 1628.68 733.02H905.805C960.67 699.358 1009.52 651.61 1060.58 609.87C1123.76 558.253 1192.18 513.004 1269.74 523.262Z" fill="#09B0EC"/>
</g>
<g style="mix-blend-mode:multiply" opacity="0.5">
<path d="M49.4749 549.645C115.801 534.769 181.781 560.922 240.024 600.293C309.55 647.281 381.306 695.929 455.934 733H0V571.43C15.6033 561.252 32.0884 553.544 49.4749 549.645Z" fill="#09B0EC"/>
</g>
<g style="mix-blend-mode:multiply" opacity="0.5">
<path d="M1302.03 628.436C1386.96 631.905 1464.43 676.504 1536.57 733H1063.61C1080.07 723.822 1096.1 713.525 1111.57 703.377C1141.01 684.052 1170.4 661.787 1201.9 648.201C1234.08 634.314 1267.96 627.036 1302.03 628.436Z" fill="#06A0DE"/>
</g>
<g style="mix-blend-mode:multiply" opacity="0.5">
<path d="M77.6699 644.782C130.048 648.521 177.184 671.775 224.678 698.409C248.985 711.996 274.348 723.565 300.515 733H0V652.16C25.7777 647.231 51.5752 642.922 77.6699 644.782Z" fill="#06A0DE"/>
</g>
<path d="M585.952 639.413C584.129 626.156 591.331 611.95 601.961 607.821C612.592 603.692 625.342 610.18 630.295 622.217C631.504 609.53 641.678 599.033 652.278 599.543C662.879 600.053 672.36 611.47 672.716 624.237C683.98 616.159 699.663 618.408 709.035 629.435C722.845 598.523 758.272 584.906 784.416 600.443C796.453 583.847 812.344 571.35 829.8 564.751C838.815 561.352 851.377 561.442 854.676 572.109C868.179 559.233 886.992 559.503 903.675 554.294C914.206 551.015 924.133 545.396 934.02 539.927C1024.1 490.12 1121.41 449.1 1220.23 458.547C1191.66 463.38 1163.18 468.931 1134.8 475.203C1108.05 481.112 1081.39 487.68 1055.69 498.198C983.317 527.79 922.3 586.896 855.122 630.745C851.902 632.845 848.504 634.954 844.848 634.944C841.014 634.944 837.497 632.595 833.802 631.375C818.536 626.376 804.151 640.463 790.212 649.53C768.585 663.627 741.995 666.196 718.783 656.449C695.007 673.265 665.534 678.203 638.785 669.876C631.563 667.626 624.331 664.427 616.891 665.077C610.947 665.587 605.429 668.506 599.871 671.005C584.684 677.864 545.591 687.691 542.877 657.888C540.479 631.235 573.291 620.788 585.952 639.413Z" fill="#C8FFFF"/>
<path d="M584.189 285.01C575.679 280.181 523.856 226.924 518.397 217.976C511.621 206.839 510.858 192.203 505.241 180.236C499.623 168.269 484.02 160.121 476.511 170.568C483.832 137.816 454.23 102.255 425.55 109.353C431.821 93.4771 416.525 72.9221 401.971 77.6409C399.871 56.0962 378.195 40.2801 360.412 47.3084C349.94 20.315 319.269 14.9363 293.63 13.3167C286.002 12.8468 278.027 12.4469 271.082 16.106C264.593 19.5252 259.431 27.7032 260.64 35.6212C256.796 19.3452 240.727 9.3377 225.966 10.6274C210.729 11.9271 197.236 22.6244 186.556 35.2613C192.233 25.2638 186.556 10.8273 177.452 4.99877C168.347 -0.8298 157.351 -0.409901 146.998 0.579856C137.091 1.51963 126.669 3.11923 119.071 10.4274C112.938 16.336 109.966 27.2733 112.919 35.2813C107.192 28.0531 97.8799 24.554 89.6275 27.1433C79.6116 30.2826 72.1716 42.0597 72.6471 54.0167C66.0491 45.6288 54.359 43.2994 45.7004 48.6381C37.0418 53.9767 32.1676 66.4937 34.5552 77.471C33.5001 76.0862 32.1728 74.9365 30.6566 74.0938C29.1404 73.2512 27.468 72.7338 25.7443 72.5743C24.0207 72.4147 22.2829 72.6163 20.6401 73.1665C18.9973 73.7166 17.4849 74.6035 16.1977 75.7714C10.8183 80.8501 10.7192 89.768 13.2257 96.5763C-0.792573 107.244 -2.23898 117.981 2.82344 125.249C1.97144 135.357 3.64571 145.354 9.18365 150.353C18.1494 158.461 32.2469 156.412 40.3606 147.184C42.8175 144.385 45.0366 140.885 48.3752 139.866C52.9819 138.476 57.4995 142.385 62.2449 142.865C70.3487 143.705 76.3423 134.917 82.8016 129.208C101.536 112.652 130.959 119.831 148.554 101.705C157.946 109.119 169.361 113.456 181.266 114.135C193.171 114.814 204.997 111.802 215.157 105.504C220.923 118.771 236.239 120.79 249.069 122C274.869 124.46 300.208 130.516 324.361 139.996C323.212 151.663 334.862 159.721 345.027 160.471C355.191 161.22 365.742 158.061 375.381 161.84C371.032 169.508 374.965 181.495 382.633 183.935C387.121 185.364 392.461 184.045 396.097 187.414C398.771 189.893 399.574 194.122 401.357 197.502C407.599 209.319 422.597 207.609 433.931 212.158C443.174 215.857 450.327 224.155 457.886 231.333C473.476 246.213 492.571 256.832 513.364 262.186C536.467 282.741 559.996 304.745 585.684 318.672C641.701 349.067 703.702 366.543 767.218 369.839C833.039 373.168 917.505 350.644 969.11 301.046C855.052 348.574 761.611 385.615 584.189 285.01Z" fill="#C8FFFF"/>
<path d="M0.158651 337.307C48.7519 326.11 100.01 321.221 149.752 322.151C188.389 322.861 228.581 327.22 264.553 342.466C301.08 357.942 328.948 387.855 360.125 411.549C443.343 474.764 550.396 540.107 656.043 550.395C608.778 545.796 563.969 545.396 517.08 533.179C465.673 519.762 415.257 499.847 369.13 473.294C343.194 458.368 320.289 438.542 293.997 424.216C263.81 407.77 233.267 404.331 199.574 401.561C134.961 396.253 60.8085 392.634 -0.00976562 419.257L0.158651 337.307Z" fill="#09B0EC"/>
</g>
<defs>
<clipPath id="clip0">
<rect width="2167" height="733" fill="white"/>
</clipPath>
</defs>
</svg>

<svg width="2167" height="733" fill="none" xmlns="http://www.w3.org/2000/svg">
  <g clip-path="url(#a)">
    <path d="M68.942 69.883c51.862-25.384 108.341-34.841 163.731-29.993 55.389 4.85 113.008 21.995 160.551 59.516 50 39.51 88.518 96.096 131.295 146.524 41.609 49.098 87.458 89.098 144.175 103.104 75.104 18.566 151.694 9.158 224.767-17.995 36.299-13.487 71.726-30.303 106.499-49.098 37.93-20.485 74.73-45.869 113.72-62.915 155.39-67.983 310.75 1.85 458.21 67.894 74.7 33.441 148.61 63.404 227.7 74.371 71.89 9.998 141.87 9.198 210.53-22.414 56.47-25.994 108.72-64.394 156.87-110.363V733H0V119.231a261.792 261.792 0 0 1 68.942-49.348Z" fill="#65D5F5"/>
    <path d="M34.218 149.223c63.8-42.299 141.669-52.057 211.898-34.791 58.104 14.267 105.261 58.616 146.622 110.283 41.084 51.347 77.819 108.723 122.469 155.372 49.941 52.197 109.996 86.059 174.985 92.807 71.33 7.408 140.955-16.546 205.409-53.857 34.674-20.095 68.209-43.279 101.11-67.753 34.919-25.994 68.749-54.227 107.989-68.703 146.48-53.987 283.08 69.293 409.65 144.574 67.82 40.513 142.76 67.407 220.7 79.201 39.49 5.928 79.01 7.788 118.75 7.538 35.06-.22 70.66-1 105.07-10.487 69.34-19.146 131.99-73.872 186.65-129.309 7.23-7.331 14.38-14.793 21.43-22.384V733H0V180.666a151.362 151.362 0 0 1 34.218-31.443Z" fill="#0AC0EF"/>
    <path d="M85.873 221.616c41.351-12.257 84.822-17.736 126.808-6.889 35.456 9.168 68.526 28.173 98.197 54.307 25.758 22.744 49.336 49.368 71.389 77.711 23.013 29.583 44.581 60.185 71.072 85.099 51.297 48.288 111.809 79.461 175.084 90.868 63.087 11.367 127.739 5.998 189.389-14.297 56.202-18.465 106.529-50.347 155.538-89.438 46.56-37.201 91.82-78.79 142.3-107.353 53.39-30.213 111.3-41.77 168.58-22.835 66.85 22.105 125.9 73.642 181.61 123.63 56.29 50.497 112.19 103.624 175.65 139.036 66.83 37.28 139.98 61.734 213.36 61.634 70.48-.09 145.36-11.787 212.59-39.08 38.95-15.806 71.48-43.409 99.62-77.891V733H0V276.112c24.262-27.453 52.635-44.629 85.873-54.496Z" fill="#3DCBF2"/>
    <path d="M4.16 515.773c33.684-13.446 68.903-23.454 104.241-26.063 44.7-3.299 90.252 11.627 132.901 26.993a866.02 866.02 0 0 1 112.116 49.868c36.081 19.155 71.379 40.15 108.559 55.856 70.924 29.993 145.572 45.859 220.428 38.261 75.411-7.648 146.057-38.301 215.207-75.762 72.469-39.27 143.928-85.649 220.698-110.193 76.04-24.304 155.48-27.783 232.25-6.468 74.7 20.735 145.88 60.515 210.03 113.082 56.7 46.469 109.37 101.325 164.12 151.643H0V517.473l4.16-1.7Z" fill="#65D5F5"/>
    <path d="M1269.74 523.262c75.44 9.997 151 46.838 217.96 90.887 50.6 33.272 97.53 73.422 140.98 118.871H905.805c54.865-33.662 103.715-81.41 154.775-123.15 63.18-51.617 131.6-96.866 209.16-86.608ZM49.475 549.645c66.326-14.876 132.306 11.277 190.549 50.648C309.55 647.281 381.306 695.929 455.934 733H0V571.43c15.603-10.178 32.088-17.886 49.475-21.785Z" fill="#09B0EC" style="mix-blend-mode:multiply" opacity=".5"/>
    <path d="M1302.03 628.436c84.93 3.469 162.4 48.068 234.54 104.564h-472.96c16.46-9.178 32.49-19.475 47.96-29.623 29.44-19.325 58.83-41.59 90.33-55.176 32.18-13.887 66.06-21.165 100.13-19.765ZM77.67 644.782c52.378 3.739 99.514 26.993 147.008 53.627A509.907 509.907 0 0 0 300.515 733H0v-80.84c25.778-4.929 51.575-9.238 77.67-7.378Z" fill="#06A0DE" style="mix-blend-mode:multiply" opacity=".5"/>
    <path d="M585.952 639.413c-1.823-13.257 5.379-27.463 16.009-31.592 10.631-4.129 23.381 2.359 28.334 14.396 1.209-12.687 11.383-23.184 21.983-22.674 10.601.51 20.082 11.927 20.438 24.694 11.264-8.078 26.947-5.829 36.319 5.198 13.81-30.912 49.237-44.529 75.381-28.992 12.037-16.596 27.928-29.093 45.384-35.692 9.015-3.399 21.577-3.309 24.876 7.358 13.503-12.876 32.316-12.606 48.999-17.815 10.531-3.279 20.458-8.898 30.345-14.367 90.08-49.807 187.39-90.827 286.21-81.38a1743.297 1743.297 0 0 0-85.43 16.656c-26.75 5.909-53.41 12.477-79.11 22.995-72.373 29.592-133.39 88.698-200.568 132.547-3.22 2.1-6.618 4.209-10.274 4.199-3.834 0-7.351-2.349-11.046-3.569-15.266-4.999-29.651 9.088-43.59 18.155-21.627 14.097-48.217 16.666-71.429 6.919-23.776 16.816-53.249 21.754-79.998 13.427-7.222-2.25-14.454-5.449-21.894-4.799-5.944.51-11.462 3.429-17.02 5.928-15.187 6.859-54.28 16.686-56.994-13.117-2.398-26.653 30.414-37.1 43.075-18.475ZM584.189 285.01c-8.51-4.829-60.333-58.086-65.792-67.034-6.776-11.137-7.539-25.773-13.156-37.74-5.618-11.967-21.221-20.115-28.73-9.668 7.321-32.752-22.281-68.313-50.961-61.215 6.271-15.876-9.025-36.43-23.579-31.712-2.1-21.545-23.776-37.36-41.559-30.333-10.472-26.993-41.143-32.372-66.782-33.991-7.628-.47-15.603-.87-22.548 2.789-6.489 3.42-11.651 11.597-10.442 19.515-3.844-16.276-19.913-26.283-34.674-24.994-15.237 1.3-28.73 11.997-39.41 24.634 5.677-9.997 0-24.434-9.104-30.262C168.347-.83 157.351-.41 146.998.579c-9.907.94-20.329 2.54-27.927 9.848-6.133 5.909-9.105 16.846-6.152 24.854-5.727-7.228-15.04-10.727-23.291-8.138-10.016 3.14-17.456 14.917-16.98 26.874-6.599-8.388-18.289-10.718-26.948-5.379-8.658 5.339-13.532 17.856-11.145 28.833a12.595 12.595 0 0 0-3.898-3.377 12.454 12.454 0 0 0-10.017-.927 12.535 12.535 0 0 0-4.442 2.604c-5.38 5.08-5.479 13.997-2.972 20.805C-.793 107.244-2.24 117.981 2.823 125.25c-.852 10.108.823 20.105 6.36 25.104 8.966 8.108 23.064 6.059 31.178-3.169 2.457-2.799 4.676-6.299 8.014-7.318 4.607-1.39 9.124 2.519 13.87 2.999 8.104.84 14.097-7.948 20.557-13.657 18.734-16.556 48.157-9.377 65.752-27.503a58.133 58.133 0 0 0 32.712 12.43 58.037 58.037 0 0 0 33.891-8.631c5.766 13.267 21.082 15.286 33.912 16.496a278.388 278.388 0 0 1 75.292 17.996c-1.149 11.667 10.501 19.725 20.666 20.475 10.164.749 20.715-2.41 30.354 1.369-4.349 7.668-.416 19.655 7.252 22.095 4.488 1.429 9.828.11 13.464 3.479 2.674 2.479 3.477 6.708 5.26 10.088 6.242 11.817 21.24 10.107 32.574 14.656 9.243 3.699 16.396 11.997 23.955 19.175 15.59 14.88 34.685 25.499 55.478 30.853 23.103 20.555 46.632 42.559 72.32 56.486 56.017 30.395 118.018 47.871 181.534 51.167 65.821 3.329 150.287-19.195 201.892-68.793-114.058 47.528-207.499 84.569-384.921-16.036Z" fill="#C8FFFF"/>
    <path d="M.159 337.307c48.593-11.197 99.851-16.086 149.593-15.156 38.637.71 78.829 5.069 114.801 20.315 36.527 15.476 64.395 45.389 95.572 69.083 83.218 63.215 190.271 128.558 295.918 138.846-47.265-4.599-92.074-4.999-138.963-17.216-51.407-13.417-101.823-33.332-147.95-59.885-25.936-14.926-48.841-34.752-75.133-49.078-30.187-16.446-60.73-19.885-94.423-22.655-64.613-5.308-138.766-8.927-199.584 17.696l.169-81.95Z" fill="#09B0EC"/>
  </g>
  <defs>
    <clipPath id="a">
      <path fill="#fff" d="M0 0h2167v733H0z"/>
    </clipPath>
  </defs>
</svg>
